!!!OTL: 84d. Zwei Koenigskinder.
!!!ARE: Europa, Mitteleuropa, Deutschland, Muensterland
!!!SCT: E0084C
!!!TXL: @@NDS
!!!YEM: Copyright 1995, estate of Helmut Schaffrath.
**kern	**text
*ICvox	*
*M4/4	*
*met(c)	*
*k[b-]	*
*F:	*
!LO:TX:a:t=Mäßig langſam.	!
!LO:TX:a:t=Aus dem Münſterſchen. Wenig abweichend im Paderbornſchen.	!
{4c	Et
=1	=1
4a	waſ-
8a	-ſen
8a	twe
8aL	Küe-
8gJ	.
4g	-niges-
=2	=2
(4.g	-kin-
8f)	.
4f}	-ner,
{4c	de
=3	=3
4b-	had-
8b-	-den
8b-	en-
8b-L	-an-
8aJ	.
8cc	-ner
8a	ſo
=4	=4
(4aqq	.
2g)	leif,
4r}	.
{4c	ſe
=5	=5
4cc	kuon-
8cc	-nen
8cc	to
8ccL	nan-
8b-J	.
8b-	-ner
8b-	nich
=6	=6
(4.a	kuom-
8ff)	.
8ccL	-men,
8b-J}	.
{8aL	dat
8gJ	.
=7	=7
4f	Wa-
8f	-ter
8f	was
8aL	viel
8gJ	.
4g	to
=8	=8
2f}	deip,
{(4.g	dat
8b-/)	.
=9	=9
4a	Wa-
8a	-ter
8a	was
8ccL	viel
8b-J	.
4g	to
=10	=10
2f	deip.
4r}	.
==	==
!!!AGN: erzaehlendes Volks - Lied, Sage, Liebe, Leid, Tod, Ballade ?
!!!ONB: ESAC (Essen Associative Code) Database: ERK1
!!!AMT: simple quadruple
!!!AIN: vox
!!!EED: Helmut Schaffrath
!!!EEV: 1.0
!!!GTL: Liebesgeschichten mit tragischem Schluss
!!!URL-scan: https://rosdok.uni-rostock.de/mcrviewer/recordIdentifier/rosdok_ppn745146120/iview2/phys_0360.iview2?x=-209.41713865975294&y=1335.6321336894762&scale=0.554360769283424&rotation=0&layout=singlePageLayout
!!!ENC: Anna Maria Matuszewska
!!!EEV: 2024/11/26
*-	*-
